src/shared/_assets/icons/microscope.svg

<svg width="21" height="29" viewBox="0 0 21 29" fill="none" xmlns="http://www.w3.org/2000/svg">
<path d="M0 28.5V25.5H7.5V22.5C5.425 22.5 3.65625 21.7687 2.19375 20.3062C0.73125 18.8438 0 17.075 0 15C0 13.475 0.41875 12.0875 1.25625 10.8375C2.09375 9.5875 3.225 8.675 4.65 8.1C4.85 7.25 5.29375 6.5625 5.98125 6.0375C6.66875 5.5125 7.45 5.25 8.325 5.25L7.5 2.925L8.925 2.4L8.4 1.05L11.25 0L11.7 1.425L13.125 0.9L17.25 12.15L15.825 12.675L16.35 14.1L13.5 15.15L13.05 13.725L11.625 14.25L10.725 11.775C10.35 12.125 9.91875 12.3875 9.43125 12.5625C8.94375 12.7375 8.45 12.8 7.95 12.75C7.4 12.7 6.8875 12.5312 6.4125 12.2437C5.9375 11.9562 5.525 11.6 5.175 11.175C4.5 11.575 3.96875 12.1125 3.58125 12.7875C3.19375 13.4625 3 14.2 3 15C3 16.25 3.4375 17.3125 4.3125 18.1875C5.1875 19.0625 6.25 19.5 7.5 19.5H19.5V22.5H12V25.5H21V28.5H0ZM12.975 11.325L14.325 10.8L11.775 3.75L10.35 4.275L12.975 11.325ZM8.25 10.5C8.675 10.5 9.03125 10.3563 9.31875 10.0688C9.60625 9.78125 9.75 9.425 9.75 9C9.75 8.575 9.60625 8.21875 9.31875 7.93125C9.03125 7.64375 8.675 7.5 8.25 7.5C7.825 7.5 7.46875 7.64375 7.18125 7.93125C6.89375 8.21875 6.75 8.575 6.75 9C6.75 9.425 6.89375 9.78125 7.18125 10.0688C7.46875 10.3563 7.825 10.5 8.25 10.5Z" fill="black"/>
</svg>

<svg xmlns="http://www.w3.org/2000/svg" fill="none" viewBox="0 0 21 29"><path fill="currentColor" d="M0 28.5v-3h7.5v-3q-3.113 0-5.306-2.194T0 15q0-2.287 1.256-4.162T4.65 8.1q.3-1.275 1.331-2.062a3.76 3.76 0 0 1 2.344-.788L7.5 2.925 8.925 2.4 8.4 1.05 11.25 0l.45 1.425L13.125.9l4.125 11.25-1.425.525.525 1.425-2.85 1.05-.45-1.425-1.425.525-.9-2.475q-.562.525-1.294.787a3.35 3.35 0 0 1-1.481.188 3.55 3.55 0 0 1-1.538-.506 4.8 4.8 0 0 1-1.237-1.069q-1.012.6-1.594 1.612A4.37 4.37 0 0 0 3 15q0 1.875 1.313 3.188Q5.625 19.5 7.5 19.5h12v3H12v3h9v3zm12.975-17.175 1.35-.525-2.55-7.05-1.425.525zM8.25 10.5q.637 0 1.069-.431.43-.432.431-1.069 0-.637-.431-1.069A1.45 1.45 0 0 0 8.25 7.5q-.637 0-1.069.431A1.45 1.45 0 0 0 6.75 9q0 .637.431 1.069.432.43 1.069.431"/></svg>
